images/icon-phone-outlined.svg

<svg class="w-6 h-6" width="24" height="24" viewBox="0 0 24 24" fill="none" xmlns="http://www.w3.org/2000/svg"><path d="M7.10991 0.999897C7.83437 0.995123 8.53603 1.25298 9.0855 1.72548C9.56837 2.14075 9.90549 2.69697 10.0503 3.3124L10.1001 3.57998L10.1011 3.58876L10.15 3.9208C10.2738 4.69087 10.4729 5.4473 10.7457 6.17861L10.814 6.38173C10.9559 6.86068 10.9763 7.36852 10.8716 7.85927C10.752 8.42016 10.4741 8.93486 10.0708 9.34267L10.0669 9.34755L9.35112 10.0624C10.527 11.9073 12.0923 13.4714 13.9371 14.6474L14.6568 13.9286L14.815 13.7841C15.1944 13.4591 15.6494 13.2325 16.1402 13.1278C16.7001 13.0084 17.2828 13.052 17.8189 13.2528C18.5509 13.526 19.3087 13.7266 20.0796 13.8505L20.4107 13.8983L20.4195 13.8993C21.148 14.0021 21.8139 14.3692 22.2896 14.9306C22.7599 15.4856 23.0106 16.1929 22.9986 16.9198L22.9996 19.9159L22.9966 20.0722C22.9791 20.4364 22.895 20.7948 22.7486 21.1298C22.5812 21.5125 22.3357 21.8562 22.0279 22.1386C21.7201 22.4209 21.3571 22.6366 20.9615 22.7704C20.6153 22.8875 20.2506 22.9395 19.8863 22.9257L19.73 22.9159C19.724 22.9154 19.7175 22.9146 19.7115 22.914C16.4791 22.5627 13.3741 21.4584 10.646 19.6894C8.10955 18.0759 5.9586 15.9239 4.34624 13.3866C2.57382 10.648 1.47009 7.53002 1.12554 4.28603L1.12358 4.27041C1.08611 3.85571 1.13623 3.43748 1.26909 3.04287C1.40202 2.6482 1.61529 2.28502 1.89604 1.97744C2.17684 1.66983 2.51897 1.42404 2.89995 1.25576C3.28084 1.08755 3.69255 1.0003 4.10894 0.999897H7.10991ZM4.00737 3.00576C3.9042 3.0166 3.80285 3.04277 3.70757 3.08486C3.5806 3.14095 3.46717 3.22355 3.37358 3.32607C3.28007 3.42851 3.20892 3.54913 3.1646 3.68056C3.12198 3.8071 3.1049 3.94107 3.11479 4.07412L3.1812 4.62294C3.52874 7.17771 4.39833 9.63358 5.73589 11.8378L6.02886 12.3065L6.03374 12.3134L6.31304 12.7392C7.64032 14.7062 9.33326 16.4001 11.3003 17.7274L11.7261 18.0058L11.7339 18.0106L12.2007 18.3036C14.547 19.7293 17.1792 20.6244 19.9126 20.9237C20.0505 20.9358 20.1898 20.9202 20.3208 20.8759C20.4526 20.8313 20.5738 20.759 20.6763 20.6649C20.7788 20.5709 20.8608 20.4565 20.9166 20.329C20.9723 20.2014 21.0001 20.063 20.9996 19.9237V16.9198L21.0005 16.8954C21.0066 16.6502 20.9218 16.4107 20.7632 16.2235C20.6066 16.0388 20.3883 15.9166 20.149 15.8808C19.1143 15.7443 18.0985 15.4917 17.1207 15.1269L17.1177 15.1259C16.939 15.0588 16.7448 15.0442 16.5582 15.0839C16.3712 15.1238 16.199 15.217 16.063 15.3515L14.7974 16.6171C14.4791 16.9354 13.9866 17.0017 13.5953 16.7792C10.9354 15.2667 8.73272 13.0641 7.22026 10.4042C6.99792 10.0129 7.0651 9.52127 7.38335 9.20302L8.648 7.93642C8.78242 7.80049 8.87569 7.62924 8.91558 7.44228C8.95545 7.2553 8.94085 7.0607 8.87358 6.88173L8.87261 6.87978C8.5088 5.90483 8.25646 4.89181 8.11968 3.86025L8.10308 3.77041C8.05477 3.5655 7.94253 3.38041 7.78179 3.24208C7.62082 3.10365 7.42057 3.01985 7.2105 3.00283L7.11968 2.9999H4.11089L4.00737 3.00576Z" fill="#c39900" style="fill-opacity:1;"/></svg>

<svg xmlns="http://www.w3.org/2000/svg" width="24" height="24" fill="none" class="w-6 h-6" viewBox="0 0 24 24"><path fill="#c39900" d="M7.11 1a3 3 0 0 1 2.94 2.312l.05.268.001.009.049.332c.124.77.323 1.526.596 2.258l.068.203a3 3 0 0 1-.743 2.96l-.004.006-.716.714a15 15 0 0 0 4.586 4.585l.72-.718.158-.145a3 3 0 0 1 3.004-.531c.732.273 1.49.474 2.26.598l.332.047.008.001A3 3 0 0 1 23 16.92v2.997l-.002.156a3 3 0 0 1-3.11 2.854l-.157-.01-.018-.002a20.8 20.8 0 0 1-9.066-3.225 20.5 20.5 0 0 1-6.3-6.302 20.8 20.8 0 0 1-3.22-9.101l-.002-.016A3 3 0 0 1 4.109 1zM4.007 3.006a1 1 0 0 0-.633.32 1 1 0 0 0-.26.748l.067.549a18.8 18.8 0 0 0 2.555 7.215l.293.469.005.006.279.426a18.5 18.5 0 0 0 4.987 4.988l.426.279.008.005.467.293a18.8 18.8 0 0 0 7.712 2.62 1 1 0 0 0 .763-.26 1 1 0 0 0 .324-.74v-3.029a1 1 0 0 0-.851-1.014 13.8 13.8 0 0 1-3.028-.754l-.003-.001a1 1 0 0 0-1.055.226l-1.266 1.265a1 1 0 0 1-1.202.162 17 17 0 0 1-6.375-6.375 1 1 0 0 1 .163-1.201l1.265-1.267a1 1 0 0 0 .226-1.054l-.001-.002a13.8 13.8 0 0 1-.753-3.02l-.017-.09a1 1 0 0 0-.893-.767L7.12 3H4.11z"/></svg>
